src/components/getStarted/wallet.svg

<?xml version="1.0" encoding="UTF-8"?>
<svg width="150px" height="150px" viewBox="0 0 150 150" version="1.1" xmlns="http://www.w3.org/2000/svg" xmlns:xlink="http://www.w3.org/1999/xlink">
    <!-- Generator: Sketch 50.2 (55047) - http://www.bohemiancoding.com/sketch -->
    <title>Group 4</title>
    <desc>Created with Sketch.</desc>
    <defs>
        <linearGradient x1="26.2066567%" y1="-5.22795377%" x2="82.1730522%" y2="103.668129%" id="linearGradient-1">
            <stop stop-color="#52D9FF" offset="0%"></stop>
            <stop stop-color="#5049FF" offset="100%"></stop>
        </linearGradient>
        <polygon id="path-2" points="4.60343659e-05 0.0622712146 71.4692903 0.0622712146 71.4692903 69.8931652 4.60343659e-05 69.8931652"></polygon>
        <linearGradient x1="50%" y1="-41.6619969%" x2="50%" y2="123.524046%" id="linearGradient-4">
            <stop stop-color="#52E5FF" offset="0%"></stop>
            <stop stop-color="#5145FF" offset="100%"></stop>
        </linearGradient>
    </defs>
    <g id="Page-1" stroke="none" stroke-width="1" fill="none" fill-rule="evenodd">
        <g id="Color-Variation" transform="translate(-300.000000, -2663.000000)">
            <g id="Get-Started-group" transform="translate(294.000000, 2557.000000)">
                <g id="Icons" transform="translate(0.000000, 93.000000)">
                    <g id="Group-4" transform="translate(8.000000, 15.000000)">
                        <circle id="Oval-2" stroke="url(#linearGradient-1)" stroke-width="4" cx="73" cy="73" r="73"></circle>
                        <g id="WALLET" transform="translate(39.000000, 36.000000)">
                            <g id="Group-3">
                                <mask id="mask-3" fill="white">
                                    <use xlink:href="#path-2"></use>
                                </mask>
                                <g id="Clip-2"></g>
                                <path d="M49.6802323,41.9513036 C48.2355871,41.9513036 47.0650065,43.1229988 47.0650065,44.5690194 C47.0650065,46.0138777 48.2355871,47.1855728 49.6802323,47.1855728 C51.1248774,47.1855728 52.2954581,46.0138777 52.2954581,44.5690194 C52.2954581,43.1229988 51.1248774,41.9513036 49.6802323,41.9513036 Z M41.8357161,53.2928014 L67.983329,53.2928014 L67.983329,35.844075 L41.8357161,35.844075 L41.8357161,53.2928014 Z M57.3064258,0.0759874875 C57.1856516,0.0899362396 57.0672,0.117833744 56.9522323,0.157355208 L1.1708129,19.3508381 C0.464748387,19.5961036 -0.00557419355,20.2656437 0.000232258065,21.0130644 L0.000232258065,68.1238121 C-0.0137032258,69.0874384 0.756232258,69.8790301 1.71894194,69.8929788 C2.68165161,69.9069276 3.47249032,69.136259 3.48642581,68.1726327 C3.48642581,68.1563592 3.48642581,68.1400856 3.48642581,68.1238121 L3.48642581,22.7578208 L64.4971355,22.7578208 L64.4971355,32.3545622 L40.0926194,32.3545622 C40.0380387,32.3522374 39.9834581,32.3522374 39.9288774,32.3545622 C39.0312,32.4394171 38.3460387,33.1961369 38.3495226,34.0993186 L38.3495226,55.0375579 C38.3495226,56.0011841 39.1299097,56.7823143 40.0926194,56.7823143 L64.4971355,56.7823143 L64.4971355,66.3790557 L8.71571613,66.3790557 C7.75300645,66.3651069 6.96216774,67.1357755 6.94823226,68.0994018 C6.93429677,69.0630281 7.70423226,69.8546197 8.66694194,69.8685685 C8.6832,69.8685685 8.69945806,69.8685685 8.71571613,69.8685685 L66.2402323,69.8685685 C67.2029419,69.8685685 67.983329,69.0874384 67.983329,68.1238121 L67.983329,56.7823143 L69.7264258,56.7823143 C70.6891355,56.7823143 71.4695226,56.0011841 71.4695226,55.0375579 L71.4695226,34.0993186 C71.4695226,33.1356923 70.6891355,32.3545622 69.7264258,32.3545622 L67.983329,32.3545622 L67.983329,21.0130644 C67.983329,20.0494381 67.2029419,19.2683079 66.2402323,19.2683079 L12.1206194,19.2683079 L55.7816516,4.24666436 L55.7816516,14.0340387 C55.7677161,14.997665 56.5376516,15.7904191 57.5003613,15.8032055 C58.463071,15.8171542 59.2539097,15.047648 59.2678452,14.0840218 C59.2678452,14.0665858 59.2678452,14.0503123 59.2678452,14.0340387 L59.2678452,1.82074389 C59.2748129,0.857117604 58.5002323,0.0690131115 57.5375226,0.0620387354 C57.4608774,0.0608763394 57.383071,0.0655259234 57.3064258,0.0759874875 Z" id="Fill-1" fill="url(#linearGradient-4)" mask="url(#mask-3)"></path>
                            </g>
                            <path d="M25.3125,41 L10.6875,41 C9.756,41 9,40.328 9,39.5 C9,38.672 9.756,38 10.6875,38 L25.3125,38 C26.244,38 27,38.672 27,39.5 C27,40.328 26.244,41 25.3125,41" id="Fill-4" fill="url(#linearGradient-4)"></path>
                            <path d="M25.3125,50 L10.6875,50 C9.756,50 9,49.328 9,48.5 C9,47.672 9.756,47 10.6875,47 L25.3125,47 C26.244,47 27,47.672 27,48.5 C27,49.328 26.244,50 25.3125,50" id="Fill-6" fill="url(#linearGradient-4)"></path>
                        </g>
                    </g>
                </g>
            </g>
        </g>
    </g>
</svg>

<svg width="150" height="150" xmlns="http://www.w3.org/2000/svg" xmlns:xlink="http://www.w3.org/1999/xlink"><defs><linearGradient x1="26.207%" y1="-5.228%" x2="82.173%" y2="103.668%" id="a"><stop stop-color="#52D9FF" offset="0%"/><stop stop-color="#5049FF" offset="100%"/></linearGradient><path id="b" d="M0 .062h71.47v69.831H0z"/><linearGradient x1="50%" y1="-41.662%" x2="50%" y2="123.524%" id="c"><stop stop-color="#52E5FF" offset="0%"/><stop stop-color="#5145FF" offset="100%"/></linearGradient></defs><g transform="translate(2 2)" fill="none" fill-rule="evenodd"><circle stroke="url(#a)" stroke-width="4" cx="73" cy="73" r="73"/><g transform="translate(39 36)"><mask id="d" fill="#fff"><use xlink:href="#b"/></mask><path d="M49.68 41.951a2.616 2.616 0 0 0-2.615 2.618 2.616 2.616 0 1 0 5.23 0 2.616 2.616 0 0 0-2.615-2.618zm-7.844 11.342h26.147V35.844H41.836v17.449zM57.306.076c-.12.014-.239.042-.354.081L1.171 19.351A1.745 1.745 0 0 0 0 21.013v47.11a1.744 1.744 0 1 0 3.485.05V22.758h61.011v9.597H40.093a1.923 1.923 0 0 0-.164 0 1.745 1.745 0 0 0-1.58 1.744v20.939c0 .963.78 1.744 1.744 1.744h24.404v9.597H8.716a1.744 1.744 0 0 0-.05 3.49H66.24c.963 0 1.743-.782 1.743-1.745V56.782h1.743c.963 0 1.744-.78 1.744-1.744V34.099c0-.963-.78-1.744-1.744-1.744h-1.743V21.013c0-.964-.78-1.745-1.743-1.745H12.12L55.783 4.247v9.787a1.743 1.743 0 1 0 3.486.05V1.821A1.745 1.745 0 0 0 57.306.076z" fill="url(#c)" mask="url(#d)"/></g><path d="M25.313 41H10.688C9.755 41 9 40.328 9 39.5s.756-1.5 1.688-1.5h14.624c.932 0 1.688.672 1.688 1.5s-.756 1.5-1.688 1.5M25.313 50H10.688C9.755 50 9 49.328 9 48.5s.756-1.5 1.688-1.5h14.624c.932 0 1.688.672 1.688 1.5s-.756 1.5-1.688 1.5" fill="url(#c)" transform="translate(39 36)"/></g></svg>
